client/public/assets/icons/standard/case_transcript.svg

<?xml version="1.0"?><svg xmlns="http://www.w3.org/2000/svg" width="100" height="100" viewBox="0 0 100 100"><path fill="#fff" d="m38 30h4c0.6 0 1-0.4 1-1v-3h14v3c0 0.6 0.4 1 1 1h4c0.6 0 1-0.4 1-1v-3c0-3.3-2.7-6-6-6h-14c-3.3 0-6 2.7-6 6v3c0 0.6 0.4 1 1 1z m36 6h-48c-3.3 0-6 2.7-6 6v32c0 3.3 2.7 6 6 6h48c3.3 0 6-2.7 6-6v-32c0-3.3-2.7-6-6-6z m-13 31c0 1.7-1.3 3-3 3h-14c-1.7 0-3-1.3-3-3v-19c0-1.7 1.3-3 3-3h7c0.6 0 1 0.4 1 1v6c0 1.1 0.9 2 2 2h6c0.6 0 1 0.4 1 1v12z m0-15.7c0 0.4-0.3 0.7-0.7 0.7h-4.3c-1.1 0-2-0.9-2-2v-4.3c0-0.4 0.3-0.7 0.7-0.7 0.2 0 0.4 0.1 0.5 0.2l5.6 5.6c0.1 0.1 0.2 0.3 0.2 0.5z"></path></svg>

<?xml version="1.0" encoding="utf-8"?>
<!-- Generator: Adobe Illustrator 17.1.0, SVG Export Plug-In . SVG Version: 6.00 Build 0)  -->
<!DOCTYPE svg PUBLIC "-//W3C//DTD SVG 1.1//EN" "http://www.w3.org/Graphics/SVG/1.1/DTD/svg11.dtd">
<svg version="1.1" id="Layer_1" xmlns="http://www.w3.org/2000/svg" xmlns:xlink="http://www.w3.org/1999/xlink" x="0px" y="0px" width="100" height="100"
	 viewBox="0 0 100 100" style="enable-background:new 0 0 100 100;" xml:space="preserve">

<g>
	<g>
		<path fill="#FFFFFF" d="M38,30h4c0.6,0,1-0.4,1-1v-3h14v3c0,0.6,0.4,1,1,1h4c0.6,0,1-0.4,1-1v-3c0-3.3-2.7-6-6-6H43c-3.3,0-6,2.7-6,6
			v3C37,29.6,37.4,30,38,30z"/>
	</g>
	<g>
		<path fill="#FFFFFF" d="M74,36H26c-3.3,0-6,2.7-6,6v32c0,3.3,2.7,6,6,6h48c3.3,0,6-2.7,6-6V42C80,38.7,77.3,36,74,36z M61,67
			c0,1.7-1.3,3-3,3H44c-1.7,0-3-1.3-3-3V48c0-1.7,1.3-3,3-3h7c0.6,0,1,0.4,1,1v6c0,1.1,0.9,2,2,2h6c0.6,0,1,0.4,1,1V67z M61,51.3
			c0,0.4-0.3,0.7-0.7,0.7H56c-1.1,0-2-0.9-2-2v-4.3c0-0.4,0.3-0.7,0.7-0.7h0c0.2,0,0.4,0.1,0.5,0.2l5.6,5.6
			C60.9,50.9,61,51.1,61,51.3L61,51.3z"/>
	</g>
</g>
</svg>
